X: 15286
T: Girls From The Gatehouse, The
R: jig
M: 6/8
K: Adorian
c|:AGE EDE|GAB ~c3|e/f/ge ded|cAB AGc|
AGE EDE|GAB c2d|ege edB|1 A3 A2c:|2 A3 A2e||
|:aba age|ede ~g3|gag ged|BAB G3|
cBc dcd|eae ged|BAB GAB|1 A3 A2e:|2 A3 A2c||

